X:232
T:Homeward Bound
M:C|
L:1/4
Q:1/4=3D120
K:Cm
C|\
FA GC|FA GC|cG EC|FD =3DB,G,|
CE GG|(FD E)c|AF GG|C3 ||
